dist/svg/icon-book.svg

<svg viewBox="0 0 50 50" xmlns="http://www.w3.org/2000/svg"><path d="M0 9.2949C0 9.2949 9.986 7.7579 23.152 14.0879L23.152 46.4999C23.152 46.4999 8.398 41.3219.227 42.2809L0 9.2949 0 9.2949zM46.5 9.2949C46.5 9.2949 36.513 7.7579 23.347 14.0879L23.347 46.4999C23.347 46.4999 38.102 41.3219 46.273 42.2809L46.5 9.2949 46.5 9.2949zM3.0548 3.9785C3.0548 3.9785 13.1738 3.9785 20.6958 10.1775M11.0548 0C11.0548 0 18.5738 3.102 21.9938 8.156M43.4443 3.9785C43.4443 3.9785 33.3263 3.9785 25.8043 10.1775M35.4443 0C35.4443 0 27.9233 3.102 24.5053 8.156" stroke="#FFF" stroke-width="2"/></svg>

<svg viewBox="0 0 50 50" xmlns="http://www.w3.org/2000/svg"><path d="M0 9.295s9.986-1.537 23.152 4.793V46.5S8.398 41.322.227 42.28L0 9.296h0zM46.5 9.295s-9.987-1.537-23.153 4.793V46.5s14.755-5.178 22.926-4.22L46.5 9.296h0zM3.055 3.978s10.119 0 17.64 6.2M11.055 0s7.519 3.102 10.939 8.156M43.444 3.978s-10.118 0-17.64 6.2M35.444 0s-7.52 3.102-10.939 8.156" stroke="#FFF" stroke-width="2"/></svg>
